X:0278
T:Cotillon.
M:2/4
L:1/16
Q:1/4=124
P:ABA % Aird uses a da capo
N:Aird did not include the accidentals in bar 15
I: :: :: DC
Z:Jack Campin * www.campin.me.uk * 2009
K:G
P:A
G2G2     A2Bc|B2A2     G4  |gfed  efgd | c2B2 A4 |\
G2G2     A2Bc|B2A2     G4  |gfed  efga | g2f2 g4:|
P:B
B2B2     A2A2|d2ed    ^c2A2|f2gf  e2d2 |^cdec A4 |\
d2fd {d}^c2BA|d2fd {d}^c2BA|B^cdB A^cdG| F2E2 D4:|
<end>
<start>
